trafik_levhalari/bilgi/75.svg

<svg viewBox="0 0 1126.7 811.2" xmlns="http://www.w3.org/2000/svg"><defs><style>.cls-1 {        fill: #003e8d;      }      .cls-2, .cls-3 {        fill: #fff;      }      .cls-3 {        fill-rule: evenodd;      }</style></defs><g data-name="Layer 2"><g data-name="Layer 1"><rect class="cls-1" width="1126.7" height="811.2"/><circle class="cls-2" cx="394.2" cy="554.36" r="34.57"/><circle class="cls-2" cx="204.6" cy="219.93" r="37.099"/><path class="cls-2" d="m231.26 281.62v73.132l50.469 35.916a16.746 16.746 0 0 1 6.917 10.669c0.815 4.712-0.326 10.549-8.152 15.049-8.609 4.695-20.43-4.7-20.43-4.7l-27.179-16.044v180.26s-17.217 24.522-36.522 0v-120.78l-42.521 109.04s-6.261 14.87-26.087 2.087c-7.64-5.031-5.3-13.123-3.335-17.337 2.272-4.88 4.278-9.881 6.227-14.9l35.2-90.632v-83.218l-31.305 59.218s-6.261 13.826-22.435 6.26c-14.184-6.634-6.9-21.7-4.893-25.3 0.508-0.912 1.012-1.825 1.5-2.746l56.347-105.78 15.391-16.434s26.226-20.403 50.808 6.233z"/><circle class="cls-2" cx="548.67" cy="339.55" r="26.623"/><path class="cls-2" d="m527.38 412.48v167.66s15.283 17.081 30.116 0v-87.653l13.485 32.809s2.863 7.035 8.6 7.035h50.348s18.26-13.043 0-29.217h-39.39l-12.521-27.652v-66.256l12.785 41.739s14.87 16.695 27.913-3.652l-13.826-45.174s-14.432-29.7-41.52-31-33.871 5.217-33.871 5.217l-50.873 34.96s-7.826 8.087-2.087 18.261 18 6.26 18 6.26z"/><path class="cls-3" d="M532.211,198.515V185.558H563l.059-1.22a64.62,64.62,0,0,0,.079-7.564,27.183,27.183,0,0,0-.663-3.109,16.974,16.974,0,0,0-1.551-3.192,25.667,25.667,0,0,0-4.637-3.962,27.913,27.913,0,0,1-2.858-2.248,36.42,36.42,0,0,1-3.477-4.868L531.29,116.436a16.975,16.975,0,0,0-11.567-10.7c-10.054-2.954-26.479-5.144-40.047-6.1-7.687-.542-12.7-.68-19.055-.637h0c-7.615.05-14.578.3-22.824,1.069-12.794,1.193-29.324,3.721-38.421,6.146a17.829,17.829,0,0,0-10.554,8.2l-20.716,46.455s-1.827,2.7-2.9,3.916c-.68.769-2.229,2.123-2.229,2.123a21.629,21.629,0,0,0-4.019,2.927,25.372,25.372,0,0,0-2.821,5.133l-.439,9.835.054.75h30.969v12.957H356.586l.717,26.753c0,3.236,2.026,5.838,5.262,5.835h.694l-.018,20.094h.018v1.054a7.873,7.873,0,0,0,7.89,7.889h21.1a7.873,7.873,0,0,0,7.89-7.889V238.993l0-7.829H519.215v21.758a7.184,7.184,0,0,0,7.2,7.2h22.395a7.18,7.18,0,0,0,7.2-7.2V230.694h.122c3.236,0,5.457-1.75,5.455-4.986l.831-27.193ZM489.637,203.7H429.293V182.83h60.344ZM509.5,159.721c-15.691-1.6-34.919-2.526-47.667-2.532-13,0-32.645,1.145-48.6,2.76-14.927,1.51-30.793,4.2-30.793,4.2l16.56-38.1a13.938,13.938,0,0,1,1.468-2.7,12.593,12.593,0,0,1,2.274-2.253,11.9,11.9,0,0,1,2.487-1.539,17.6,17.6,0,0,1,2.472-.887s14.908-2.544,28.029-4.193a226.553,226.553,0,0,1,25.284-1.558h0a317.4,317.4,0,0,1,34.508,2.441c5.365.67,15.965,2.867,15.965,2.867a20.583,20.583,0,0,1,3.894,1.668,12.313,12.313,0,0,1,2.123,1.763,13.075,13.075,0,0,1,1.994,2.5,11.412,11.412,0,0,1,.917,1.888l15.662,37.389S524.376,161.239,509.5,159.721Z"/><rect class="cls-2" x="810.87" y="170.82" width="57.631" height="72.703"/><path class="cls-3" d="m876.31 90.6-33.162 20.54v-11.821h-50.451v43.069l-86.615 53.647h61.258v164.93h217.35v-164.93h61.847zm83.5 246.53h-55.398v-79.867h-57.631v79.867h-55.362v-166.31l84.194-52.02 84.19 52.02z"/><rect class="cls-2" x="882.69" y="170.82" width="57.631" height="72.703"/><path class="cls-3" d="m624.84 238.73h37.959s-12.522 82.305 55.826 156.91 214.95 166.96 260.34 185.74l-16.171 33.916s-111.13-53.739-200.35-128.87-137.48-122.87-137.61-247.7z"/><path class="cls-2" d="m98.989 695.92 15.81-23.136h12.223l-22.987 33.639v22.427h-10.092v-22.427l-22.987-33.639h12.222z"/><path class="cls-2" d="M168.474,707.661v-2.056a6.787,6.787,0,0,0-5.457-6.615q-1.122-.187-2.467-.28t-2.542-.094a31.369,31.369,0,0,0-13.306,2.953l-3.1-8.448a39.066,39.066,0,0,1,16.409-3.513q1.531,0,3.289.149t3.177.374a15.919,15.919,0,0,1,13.008,15.474v23.249h-9.008v-1.2a24.808,24.808,0,0,1-10.466,2.317,23.837,23.837,0,0,1-15.213-5.269,8.939,8.939,0,0,1,0-14.092,23.823,23.823,0,0,1,15.213-5.308A24.318,24.318,0,0,1,168.474,707.661Zm-20.147,9.98a15.612,15.612,0,0,0,19.362,0,15.612,15.612,0,0,0-19.362,0Z"/><path class="cls-2" d="M203.908,737.077a6.352,6.352,0,0,0,5.2.318,6.645,6.645,0,0,0,3.925-3.569l2.056-5.009L197.7,690.729h9.83l12.559,27.547,12.6-27.547h9.867l-21.38,46.834a15.249,15.249,0,0,1-9.027,8.317,14.864,14.864,0,0,1-12.241-.767Z"/><path class="cls-2" d="M286.213,707.661v-2.056a6.56,6.56,0,0,0-1.551-4.279,6.493,6.493,0,0,0-3.906-2.336q-1.122-.187-2.467-.28t-2.542-.094a31.369,31.369,0,0,0-13.306,2.953l-3.1-8.448a39.069,39.069,0,0,1,16.409-3.513q1.533,0,3.29.149t3.176.374a15.919,15.919,0,0,1,13.008,15.474v23.249h-9.008v-1.2a24.808,24.808,0,0,1-10.466,2.317,23.832,23.832,0,0,1-15.212-5.269,8.938,8.938,0,0,1,0-14.092,23.82,23.82,0,0,1,15.212-5.308A24.315,24.315,0,0,1,286.213,707.661Zm-20.147,9.98a15.612,15.612,0,0,0,19.362,0,15.612,15.612,0,0,0-19.362,0Z"/><path class="cls-2" d="m939.76 695.92 15.81-23.136h12.223l-22.991 33.639v22.427h-10.088v-22.427l-22.987-33.639h12.222z"/><path class="cls-2" d="m1002.6 689.64q10.053 0 15.119 6.335a21.544 21.544 0 0 1 0 27.753q-5.066 6.318-15.119 6.28-10.13 0.038-15.157-6.28a21.662 21.662 0 0 1 0-27.753q5.026-6.335 15.157-6.335zm-8.41 12.485a12.024 12.024 0 0 0 0 15.436q2.8 3.514 8.41 3.477 5.606 0.036 8.409-3.477a12.024 12.024 0 0 0 0-15.436q-2.8-3.514-8.409-3.514t-8.41 3.514z"/><path class="cls-2" d="m1055.3 728.85h-8.971v-56.066h8.971z"/><path class="cls-2" d="M393.517,680.151a20.218,20.218,0,0,1,32.929,0v.037a33.686,33.686,0,0,1-.037,41.377,20.17,20.17,0,0,1-32.855-.037,33.615,33.615,0,0,1-.037-41.377Zm-1.458-12.933V657.127h10.092v10.091Zm9.606,18.989a23.255,23.255,0,0,0,0,29.3,10.045,10.045,0,0,0,16.633,0,23.388,23.388,0,0,0,0-29.3,10.045,10.045,0,0,0-16.633,0Zm16.147-29.08H427.9v10.091H417.812Z"/><path class="cls-2" d="m459.84 690.69h8.971v2.317a18.992 18.992 0 0 1 10.559-3.42 20.471 20.471 0 0 1 17.81 9.512 19.114 19.114 0 0 1 3.028 10.691v19.062h-8.971v-19.062a11.213 11.213 0 1 0-22.426 0v19.062h-8.971z"/><path class="cls-2" d="m560.13 697.08-6.989 5.643a11.214 11.214 0 1 0 0 14.129l6.989 5.644a20.277 20.277 0 0 1-6.989 5.476 19.834 19.834 0 0 1-8.709 2 20.184 20.184 0 0 1 0-40.367 19.834 19.834 0 0 1 8.709 2 20.28 20.28 0 0 1 6.989 5.475z"/><path class="cls-2" d="m614.49 723.81a20.738 20.738 0 0 1-14.577 6.205 20.166 20.166 0 1 1 20.184-20.184 19.789 19.789 0 0 1-0.487 4.485l-30.014-0.037a11.257 11.257 0 0 0 4.168 4.9 10.91 10.91 0 0 0 6.148 1.869 10.726 10.726 0 0 0 8.111-3.477zm-24.893-18.465h20.632a11.429 11.429 0 0 0-4.167-4.878 10.965 10.965 0 0 0-12.3 0 11.425 11.425 0 0 0-4.165 4.878z"/><path class="cls-2" d="m652.07 728.85h-8.97v-56.066h8.97z"/><path class="cls-2" d="m679.52 677.27h8.97v8.971h-8.97zm0 13.419h8.97v38.162h-8.97z"/><path class="cls-2" d="m724.91 701.79 14.465-11.1h14.691l-20.372 15.7 20.372 22.427h-12.112l-15.436-16.933-1.608 1.234v15.7h-8.97v-56.07h8.97z"/><path class="cls-2" d="m784.91 728.85h-8.97v-56.066h8.97z"/><path class="cls-2" d="m812.36 677.27h8.971v8.971h-8.971zm0 13.419h8.971v38.162h-8.971z"/><path class="cls-2" d="m1054 794.98h-982.36a53.7 53.7 0 0 1-53.64-53.641v-672.25a53.7 53.7 0 0 1 53.64-53.641h982.36a53.7 53.7 0 0 1 53.639 53.641v672.25a53.7 53.7 0 0 1-53.639 53.641zm-982.36-762.49a36.643 36.643 0 0 0-36.6 36.6v672.25a36.643 36.643 0 0 0 36.6 36.6h982.36a36.643 36.643 0 0 0 36.6-36.6v-672.25a36.643 36.643 0 0 0-36.6-36.6z"/></g></g></svg>

<svg xmlns="http://www.w3.org/2000/svg" viewBox="0 0 1126.727 811.205">
  <defs>
    <style>
      .cls-1 {
        fill: #003e8d;
      }

      .cls-2, .cls-3 {
        fill: #fff;
      }

      .cls-3 {
        fill-rule: evenodd;
      }
    </style>
  </defs>
  <g id="Layer_2" data-name="Layer 2">
    <g id="Layer_1-2" data-name="Layer 1">
      <g>
        <rect class="cls-1" width="1126.727" height="811.205"/>
        <g>
          <g>
            <circle class="cls-2" cx="394.196" cy="554.365" r="34.57"/>
            <g>
              <circle class="cls-2" cx="204.597" cy="219.929" r="37.099"/>
              <path class="cls-2" d="M231.259,281.618V354.75l50.469,35.916a16.746,16.746,0,0,1,6.917,10.669c.815,4.712-.326,10.549-8.152,15.049-8.609,4.695-20.43-4.7-20.43-4.7l-27.179-16.044V575.905s-17.217,24.522-36.522,0V455.123L153.841,564.166s-6.261,14.87-26.087,2.087c-7.64-5.031-5.3-13.123-3.335-17.337,2.272-4.88,4.278-9.881,6.227-14.9l35.2-90.632V360.166l-31.305,59.218s-6.261,13.826-22.435,6.26c-14.184-6.634-6.9-21.7-4.893-25.3.508-.912,1.012-1.825,1.5-2.746l56.347-105.779,15.391-16.434S206.677,254.982,231.259,281.618Z"/>
            </g>
            <g>
              <circle class="cls-2" cx="548.673" cy="339.546" r="26.623"/>
              <path class="cls-2" d="M527.377,412.48V580.144s15.283,17.081,30.116,0V492.491L570.978,525.3s2.863,7.035,8.6,7.035h50.348s18.26-13.043,0-29.217H590.536l-12.521-27.652V409.21L590.8,450.949s14.87,16.695,27.913-3.652l-13.826-45.174s-14.432-29.7-41.52-31-33.871,5.217-33.871,5.217L478.623,411.3s-7.826,8.087-2.087,18.261,18,6.26,18,6.26Z"/>
            </g>
          </g>
          <path class="cls-3" d="M532.211,198.515V185.558H563l.059-1.22a64.62,64.62,0,0,0,.079-7.564,27.183,27.183,0,0,0-.663-3.109,16.974,16.974,0,0,0-1.551-3.192,25.667,25.667,0,0,0-4.637-3.962,27.913,27.913,0,0,1-2.858-2.248,36.42,36.42,0,0,1-3.477-4.868L531.29,116.436a16.975,16.975,0,0,0-11.567-10.7c-10.054-2.954-26.479-5.144-40.047-6.1-7.687-.542-12.7-.68-19.055-.637h0c-7.615.05-14.578.3-22.824,1.069-12.794,1.193-29.324,3.721-38.421,6.146a17.829,17.829,0,0,0-10.554,8.2l-20.716,46.455s-1.827,2.7-2.9,3.916c-.68.769-2.229,2.123-2.229,2.123a21.629,21.629,0,0,0-4.019,2.927,25.372,25.372,0,0,0-2.821,5.133l-.439,9.835.054.75h30.969v12.957H356.586l.717,26.753c0,3.236,2.026,5.838,5.262,5.835h.694l-.018,20.094h.018v1.054a7.873,7.873,0,0,0,7.89,7.889h21.1a7.873,7.873,0,0,0,7.89-7.889V238.993l0-7.829H519.215v21.758a7.184,7.184,0,0,0,7.2,7.2h22.395a7.18,7.18,0,0,0,7.2-7.2V230.694h.122c3.236,0,5.457-1.75,5.455-4.986l.831-27.193ZM489.637,203.7H429.293V182.83h60.344ZM509.5,159.721c-15.691-1.6-34.919-2.526-47.667-2.532-13,0-32.645,1.145-48.6,2.76-14.927,1.51-30.793,4.2-30.793,4.2l16.56-38.1a13.938,13.938,0,0,1,1.468-2.7,12.593,12.593,0,0,1,2.274-2.253,11.9,11.9,0,0,1,2.487-1.539,17.6,17.6,0,0,1,2.472-.887s14.908-2.544,28.029-4.193a226.553,226.553,0,0,1,25.284-1.558h0a317.4,317.4,0,0,1,34.508,2.441c5.365.67,15.965,2.867,15.965,2.867a20.583,20.583,0,0,1,3.894,1.668,12.313,12.313,0,0,1,2.123,1.763,13.075,13.075,0,0,1,1.994,2.5,11.412,11.412,0,0,1,.917,1.888l15.662,37.389S524.376,161.239,509.5,159.721Z"/>
          <g>
            <rect class="cls-2" x="810.87" y="170.82" width="57.631" height="72.703"/>
            <path class="cls-3" d="M876.307,90.6l-33.162,20.54V99.319H792.694v43.069l-86.615,53.647h61.258V360.962H984.688V196.035h61.847Zm83.5,246.533H904.409V257.266H846.778v79.867H791.416V170.82L875.61,118.8,959.8,170.82Z"/>
            <rect class="cls-2" x="882.687" y="170.82" width="57.631" height="72.703"/>
          </g>
          <path class="cls-3" d="M624.841,238.731H662.8s-12.522,82.305,55.826,156.913S933.58,562.6,978.971,581.384L962.8,615.3s-111.13-53.739-200.348-128.87S624.971,363.558,624.841,238.731Z"/>
          <g>
            <g>
              <path class="cls-2" d="M98.989,695.924l15.81-23.136h12.223l-22.987,33.639v22.427H93.943V706.427L70.956,672.788H83.178Z"/>
              <path class="cls-2" d="M168.474,707.661v-2.056a6.787,6.787,0,0,0-5.457-6.615q-1.122-.187-2.467-.28t-2.542-.094a31.369,31.369,0,0,0-13.306,2.953l-3.1-8.448a39.066,39.066,0,0,1,16.409-3.513q1.531,0,3.289.149t3.177.374a15.919,15.919,0,0,1,13.008,15.474v23.249h-9.008v-1.2a24.808,24.808,0,0,1-10.466,2.317,23.837,23.837,0,0,1-15.213-5.269,8.939,8.939,0,0,1,0-14.092,23.823,23.823,0,0,1,15.213-5.308A24.318,24.318,0,0,1,168.474,707.661Zm-20.147,9.98a15.612,15.612,0,0,0,19.362,0,15.612,15.612,0,0,0-19.362,0Z"/>
              <path class="cls-2" d="M203.908,737.077a6.352,6.352,0,0,0,5.2.318,6.645,6.645,0,0,0,3.925-3.569l2.056-5.009L197.7,690.729h9.83l12.559,27.547,12.6-27.547h9.867l-21.38,46.834a15.249,15.249,0,0,1-9.027,8.317,14.864,14.864,0,0,1-12.241-.767Z"/>
              <path class="cls-2" d="M286.213,707.661v-2.056a6.56,6.56,0,0,0-1.551-4.279,6.493,6.493,0,0,0-3.906-2.336q-1.122-.187-2.467-.28t-2.542-.094a31.369,31.369,0,0,0-13.306,2.953l-3.1-8.448a39.069,39.069,0,0,1,16.409-3.513q1.533,0,3.29.149t3.176.374a15.919,15.919,0,0,1,13.008,15.474v23.249h-9.008v-1.2a24.808,24.808,0,0,1-10.466,2.317,23.832,23.832,0,0,1-15.212-5.269,8.938,8.938,0,0,1,0-14.092,23.82,23.82,0,0,1,15.212-5.308A24.315,24.315,0,0,1,286.213,707.661Zm-20.147,9.98a15.612,15.612,0,0,0,19.362,0,15.612,15.612,0,0,0-19.362,0Z"/>
            </g>
            <g>
              <path class="cls-2" d="M939.758,695.924l15.81-23.136h12.223L944.8,706.427v22.427H934.712V706.427l-22.987-33.639h12.222Z"/>
              <path class="cls-2" d="M1002.553,689.645q10.053,0,15.119,6.335a21.544,21.544,0,0,1,0,27.753q-5.066,6.318-15.119,6.28-10.13.038-15.157-6.28a21.662,21.662,0,0,1,0-27.753Q992.422,689.645,1002.553,689.645Zm-8.41,12.485a12.024,12.024,0,0,0,0,15.436q2.8,3.514,8.41,3.477,5.606.036,8.409-3.477a12.024,12.024,0,0,0,0-15.436q-2.8-3.514-8.409-3.514T994.143,702.13Z"/>
              <path class="cls-2" d="M1055.292,728.854h-8.971V672.788h8.971Z"/>
            </g>
            <g>
              <path class="cls-2" d="M393.517,680.151a20.218,20.218,0,0,1,32.929,0v.037a33.686,33.686,0,0,1-.037,41.377,20.17,20.17,0,0,1-32.855-.037,33.615,33.615,0,0,1-.037-41.377Zm-1.458-12.933V657.127h10.092v10.091Zm9.606,18.989a23.255,23.255,0,0,0,0,29.3,10.045,10.045,0,0,0,16.633,0,23.388,23.388,0,0,0,0-29.3,10.045,10.045,0,0,0-16.633,0Zm16.147-29.08H427.9v10.091H417.812Z"/>
              <path class="cls-2" d="M459.837,690.692h8.971v2.317a18.992,18.992,0,0,1,10.559-3.42,20.471,20.471,0,0,1,17.81,9.512,19.114,19.114,0,0,1,3.028,10.691v19.062h-8.971V709.792a11.213,11.213,0,1,0-22.426,0v19.062h-8.971Z"/>
              <path class="cls-2" d="M560.134,697.084l-6.989,5.643a11.214,11.214,0,1,0,0,14.129l6.989,5.644a20.277,20.277,0,0,1-6.989,5.476,19.834,19.834,0,0,1-8.709,2,20.184,20.184,0,0,1,0-40.367,19.834,19.834,0,0,1,8.709,2A20.28,20.28,0,0,1,560.134,697.084Z"/>
              <path class="cls-2" d="M614.493,723.808a20.738,20.738,0,0,1-14.577,6.205A20.166,20.166,0,1,1,620.1,709.829a19.789,19.789,0,0,1-.487,4.485l-30.014-.037a11.257,11.257,0,0,0,4.168,4.9,10.91,10.91,0,0,0,6.148,1.869,10.726,10.726,0,0,0,8.111-3.477ZM589.6,705.343h20.632a11.429,11.429,0,0,0-4.167-4.878,10.965,10.965,0,0,0-12.3,0A11.425,11.425,0,0,0,589.6,705.343Z"/>
              <path class="cls-2" d="M652.07,728.854H643.1V672.788h8.97Z"/>
              <path class="cls-2" d="M679.519,677.273h8.97v8.971h-8.97Zm0,13.419h8.97v38.162h-8.97Z"/>
              <path class="cls-2" d="M724.907,701.793l14.465-11.1h14.691l-20.372,15.7,20.372,22.427H741.951l-15.436-16.933-1.608,1.234v15.7h-8.97V672.751h8.97Z"/>
              <path class="cls-2" d="M784.911,728.854h-8.97V672.788h8.97Z"/>
              <path class="cls-2" d="M812.358,677.273h8.971v8.971h-8.971Zm0,13.419h8.971v38.162h-8.971Z"/>
            </g>
          </g>
        </g>
        <path class="cls-2" d="M1053.979,794.983H71.614a53.7,53.7,0,0,1-53.64-53.641V69.093a53.7,53.7,0,0,1,53.64-53.641h982.365a53.7,53.7,0,0,1,53.639,53.641V741.342A53.7,53.7,0,0,1,1053.979,794.983ZM71.614,32.491a36.643,36.643,0,0,0-36.6,36.6V741.342a36.643,36.643,0,0,0,36.6,36.6h982.365a36.643,36.643,0,0,0,36.6-36.6V69.093a36.643,36.643,0,0,0-36.6-36.6Z"/>
      </g>
    </g>
  </g>
</svg>
